/* XPM */
static char *eb110cf1ccad4c7aef66597e95df5b00AobUYyMEiHdVZiuo[] = {
/* columns rows colors chars-per-pixel */
"64 64 220 2 ",
"   c #3F2320",
".  c #4D3527",
"X  c #543A2D",
"o  c #52372E",
"O  c #553C34",
"+  c #593E35",
"@  c #593E39",
"#  c #533934",
"$  c #432B21",
"%  c #57412C",
"&  c #5C4335",
"*  c #5D443B",
"=  c #5F4836",
"-  c #69542D",
";  c #624A36",
":  c #60463B",
">  c #634B3C",
",  c #604731",
"<  c #6B5534",
"1  c #67513C",
"2  c #6C543D",
"3  c #6D5937",
"4  c #725C3C",
"5  c #624B2C",
"6  c #5E4441",
"7  c #614641",
"8  c #654C43",
"9  c #694E44",
"0  c #664C4A",
"q  c #6A4E4A",
"w  c #6C5345",
"e  c #6F5845",
"r  c #6D534B",
"t  c #6F584A",
"y  c #705745",
"u  c #735B44",
"i  c #71564C",
"p  c #745B4C",
"a  c #785E4E",
"s  c #6E5552",
"d  c #715651",
"f  c #755C53",
"g  c #795E54",
"h  c #765C5A",
"j  c #795E5A",
"k  c #674D50",
"l  c #796345",
"z  c #77604C",
"x  c #7B644D",
"c  c #7B664A",
"v  c #7B6354",
"b  c #7F6854",
"n  c #7D635B",
"m  c #7F6858",
"M  c #776050",
"N  c #7D6362",
"B  c #826D4C",
"V  c #89744F",
"C  c #806655",
"Z  c #836B55",
"A  c #81665C",
"S  c #836B5C",
"D  c #886F5B",
"F  c #867154",
"G  c #8A7454",
"H  c #8D7856",
"J  c #86705B",
"K  c #8B745C",
"L  c #8E795C",
"P  c #937D56",
"I  c #927B5C",
"U  c #816662",
"Y  c #856C62",
"T  c #896E63",
"R  c #896F69",
"E  c #856B69",
"W  c #877062",
"Q  c #8B7364",
"!  c #8F7862",
"~  c #8D746A",
"^  c #8F7869",
"/  c #907665",
"(  c #937C64",
")  c #91766A",
"_  c #937B6B",
"`  c #997F6E",
"'  c #967C71",
"]  c #997F72",
"[  c #97815E",
"{  c #968163",
"}  c #9A8365",
"|  c #96806A",
" . c #9B846C",
".. c #9E896A",
"X. c #9D8863",
"o. c #9C8373",
"O. c #9E8872",
"+. c #9E8479",
"@. c #9F8879",
"#. c #A18A66",
"$. c #A28C6C",
"%. c #A8936E",
"&. c #A08775",
"*. c #A38C73",
"=. c #A1867A",
"-. c #A38B7C",
";. c #A88F7C",
":. c #A79173",
">. c #AA9375",
",. c #AE9973",
"<. c #A6907A",
"1. c #AB947C",
"2. c #AE997C",
"3. c #B09B75",
"4. c #B39C7C",
"5. c #B7A07B",
"6. c #BAA47E",
"7. c #A58C81",
"8. c #A98F83",
"9. c #A68B85",
"0. c #AC9384",
"q. c #AF9982",
"w. c #AE9589",
"e. c #AC9587",
"r. c #B39C83",
"t. c #B09689",
"y. c #B59C8B",
"u. c #B89F8D",
"i. c #B09784",
"p. c #B59B92",
"a. c #B99E92",
"s. c #B99F98",
"d. c #B6A183",
"f. c #BAA385",
"g. c #BDA983",
"h. c #B6A08B",
"j. c #BCA48C",
"k. c #BEA98B",
"l. c #BCA493",
"z. c #BFA892",
"x. c #BEA599",
"c. c #BAA393",
"v. c #C1AA86",
"b. c #C2AB8D",
"n. c #C6B18E",
"m. c #CBB58F",
"M. c #C0A794",
"N. c #C3AC93",
"B. c #C1A799",
"V. c #C4AC9B",
"C. c #C8AF9D",
"Z. c #C7B193",
"A. c #CBB495",
"S. c #CEB994",
"D. c #C7B09A",
"F. c #CBB49C",
"G. c #CEB99C",
"H. c #D2BB9D",
"J. c #D1BE96",
"K. c #C5ADA1",
"L. c #C9AEA3",
"P. c #C0A7A0",
"I. c #CCB4A2",
"U. c #CEB8A2",
"Y. c #CEB5AA",
"T. c #CFB8A9",
"R. c #C7B0A0",
"E. c #D1B7A5",
"W. c #D3BCA4",
"Q. c #D1B7AA",
"!. c #D4BCAB",
"~. c #D8BFAC",
"^. c #D5BCB1",
"/. c #D9BFB2",
"(. c #D5C09C",
"). c #D9C49F",
"_. c #D6C1A4",
"`. c #DAC3A5",
"'. c #DDC9A6",
"]. c #D7C1AA",
"[. c #DBC4AC",
"{. c #DEC9AC",
"}. c #DCC4B3",
"|. c #DFC9B1",
" X c #DFC8B2",
".X c #DEC4B9",
"XX c #DFC8B9",
"oX c #D7C0B2",
"OX c #E2CBAD",
"+X c #E0C9A7",
"@X c #E5D1AE",
"#X c #E8D1AF",
"$X c #E0C7B4",
"%X c #E2CBB4",
"&X c #E4CDBA",
"*X c #E8CEBD",
"=X c #E0C6B9",
"-X c #E6D1B3",
";X c #f823dbff",
":X c #744c23ff",
">X c #EBD4BC",
",X c #EED9BC",
"<X c #F2DCBD",
"1X c #E5CEC1",
"2X c #E8CEC1",
"3X c #ECD4C2",
"4X c #EED8C2",
"5X c #EED6C8",
"6X c #ECD5C7",
"7X c #F0D7C3",
"8X c #F2DBC3",
"9X c #F3DBCA",
"0X c #F1D7C8",
"qX c #F6DED1",
"wX c #F5E0C5",
"eX c #F7E1CB",
"rX c #FBE3CB",
"tX c #FBE6C6",
"yX c #FAE2D2",
"uX c #FEE8D3",
/* pixels */
"g Y g ) ~ t j 8 t 8 w T ~ g r p p g p ] ' r v n n r i ' ' p g Q v S p ~ ) d j * j * t Y Q m > a e 9 f _ ' n f n j U 9 ~ ] 9 a ! ",
"S D v oX!.r g p 7 p A }.}.D a 9 e e =.oX^.o.i v n S T ^.^.Q S v S S g ^.^.p v p 7 w v oX&XW M w A g ] Y.Q.] g A r Q A .X5X) D a ",
"v v %X8X3X!.e y a M &X XoX|.v C C  .|.%X X!./ a a S 0X*X*X4Xv y z x |.4X3X~.p z p v I.%X&X].K Z a &.E.4X0X!.o.w A !  X~.3X9XK x ",
"x F.8X|.|.4XN.y u j.%X[.[.%Xz.b L M.>X[.[.4Xu.x Z D.>X[.[.>XN.x x F.8X|.|.>XD.z u j.[.|.|.[.N.Z J M.[.!.[.:XN.D C F.>X|.%X8XD.x ",
"j.,X_.N.Z.{.;X:.1.[.Z.k.N.G.%X2.k.W.N.N.G.`.`.r.b.;XG.A.G.W.>XN.j.8X[.N.N.[.>X4.:.W.G.k.k.G.{.k.k.G.D.f.b.W.W.N.r.OX`.H.D.W.>XA.",
"A.].:Xb.N.;XG.4.b.{.OXd.j.>X%Xj.b.%XN.f.b.H.OX4.b.`.;XG.W.8X%XN.N._.:Xb.N.;XH.f.f.G.,Xd.d.8X[.G.4.H.`.N.N.`._.d.k.H.<XA.f.>X>X[.",
"K U.[.%X%X_.A.F c `.{.>X>X[.U.u x M.%X`.W.`.f.u G `.`.>X<X%X[.Z F F.[.%X%X_.G.K l G.{.,X>X[.U.x x k.%XH.F.OXb.G B Z.;XeX8X8X$XZ ",
"C J >X:X%X%XL } { L U.!.U.l.v S z ( F.C.M.M.$.$.( } [.&X:X$X/ C b J >X:X%X%XK ( { { z.[.!.y.S v p  .B.W.F.k.&.K :.G %X%X%X7X` C ",
"9 r ] 0XXXJ  .[.|.Z O.I.x.) 9 g i g ) E.l.C ;.%X%XK ` *X&Xo.i 9 r r ) 5X}.b | ].[.| J !.R.S v r g 9 _ I.C.( O.%X[.*.S [.9X=.p 8 ",
"n j w ) -.` V.|.].I.S 0.7.9 n r 0 t 9 o.e.-.E.&X>XI._ 8.o.* r j s t 8 ] 7._ B.|.[.z.! -.@.i d s 0 g * =.u.] ~.%X&X}.o.=.7.9 8 U ",
"s 8 N $ : R.C.~.[.%X@.* w j r 0 0 * U O p !.I.=X=X Xu.> + 0 # r r 6 U . : B.x.!.XXI.u.O * ~ # s 0 0 f + p M.!.%X|.%XR.* * f $ j ",
"# E 0 A Q Q [.E.!.}.D v n 8 n 0 6 R 8 A T D [.W.E.&XC T Q @ n @ 6 R 8 n Y S !.U.!.%XS m U 8 U 8 0 n 0 g A / E.[.W.&XS A ~ 7 d @ ",
"d j g oXI.2 1.{.G.! J T.R.n s j 0 f p !.I.u 1.`.`. .u F.K.f n f f f w !.U.u 1.%XG.&.a ~.!.g Y r d 0 i K.F.Z *.W.%X&.; V.Y.g U r ",
"v 8 K.:X|.j.l >.$.< N.:XoXI.g r f 8 B.oX!.b.c :.>.5 A.!.C.R.9 f j * x.3X:XN.l %.*.2 M.&X XT.v r f r t.[.$Xb.G I 4.< r.!.E.K.n i ",
"e x.oX>X>X'.g.< 4 n.A.OX%XT.R.> p u.V.W.W.A.6.- < 4.H.`.!.!.u.: w c.oX4X,X'.g.- 4 g.(.{.[.~.V.r w B.l.W.`.Z.n.- < ,.A.`.~.E.B.w ",
"-.:X>X-X;X,XOX[ } ;X%X`.-X|.U.<. .C.N.G.!.`.A.P H OXZ.A.%X[.~.}  .|.>X-X-X;X#X%.H @X-X[.|.!.U.r.Q l.[.F.G.OXA.#.B S.H.W.`.~.E.<.",
"G.%XG...*.E.].r.F.:XN.1.q.A.-Xk.N.W.M. .*.F.!.j.`.W.W.4.:.OX-Xf.A.{.@X{ *.{.k.G.N.%XD.2.r.A.>XF.r.U.F.-.*.D.[.N.b.%XOX2.&.D.%XW.",
"d.[.>X[.!.}.R.7.;.oXyX4X4XrXW.} $.b.`.%X&X$Xl._ o.7X&X%XOX`.OX#.%.;X(.{.[.U.:XO.O.!.yX4X4XrX'.*.*.B.!.[.}.}.C.<.&.E.7X%X%X%XW.f.",
"e q.%X&X~.V.o.t v e.9X&X X>X*.u u r.!.R.R.!.7.& o u.9X%X:X`.*.I ( } %X|.D.~.@.w g 0.5XXXXX4X<.z > 8.!.Q.^.=X8.O . e.>X=X%X7Xk.1 ",
"p z 0.1X^.Q 8 v f 0 w.yX9X-.= p y a -. X.X+.0 * r + B.>X>Xk.x `.G.L *.>XoXQ 9 v j 9 0.qX9X8.> p p f o.^..X7.i : & 9 -.*X3Xy.v y ",
"p p ~ 0.7.n r j r s Y s.y.g w t f > n w.w.f * d 0 8 r l.u.Q W.7X4X!.` e.t.d t v t r n p.a.v r r n 8 f 8.8.j * i f o w p.x.v : g ",
"9 r v Y U j t r 6 n r d r 7 v 9 9 f g i r d f d r O v Y v ;.!.4X&X:Xo.v Q v f 8 6 j 8 t t 8 v 7 7 d n j f g i : 9 8 w A T g 9 : ",
"Y : m Y.Y.n 7 Y r @ v K.K.g & p i 9 ) K.V.T r n A T : =XoXy R.&X&Xl.M T.oXr v v 8 O f K.K.v * d j q Y s.c.T p A D e Y V.K.! w a ",
": Q V.1X&Xx.W * : p p.!.!.a.g w i v e.&X.X-.v v g a |.|.$XF.a D.D.w E.%X|.oX> e & w t.Y.!.c.M r t f 7.=X2Xt.C a u D y.>X4Xl.S > ",
"; ].%XE.%X>XV.; & l.U.E.%X!.y.1 e U.U.E.%XE.M.x x F.8X>X;X%Xk.2 2 A.%X%X%X%XD.1 % l.F.U.|.].c.w r K.Q.~.~.!.D.4 l N.>X8X>X%Xl.u ",
"y.:Xk.N.[.A.!.:.*.>XD.j.k.N.[.*.<.[.V.b.F.G.F.1.b.OX`.H.W.`.`.f.1.;XG.Z.A.G.-X$.*.-XZ.z.z.l.}.0.-.!.U.N.N.G.`.,.4.+XOXH.N.OX:Xr.",
"U.|.%Xq.k.,XA.r.G.G.-XN.k.%XW.N.y.!.E.u.k.H.A.d.b.H.b.f.N.`.OXb.W.G.{.b.n.{.Z.n.G.A.-XG.z.[.U.!.0.E.W.k.f.H.(.v.6.S.m.d.4.H.,Xb.",
"Q &X>X[.{.%XW.c Z _.>X%X|.eX:X2 S u.[.F.G.`.f.} $.b.A.`.>X;XG.( Z %X<X{.'.-X'.B B H.>X:X|.8X&Xa v r.|.G.A.'.v.#.%.5.m.#XOX%X[. .",
"v W 3XeX>X[.{ *. .Z !.8X8X%Xv & & D F.$X[.F.r.$.*.4.N.8XrXW.*.u a J :X8X,X%X .$. .F ].4X4X*XD & & S B.[.`.H.3.#.3.>.b.wXtXW.1.a ",
"r v )  XU.! r.D.[.` z |. Xp 7 w : : ~ I.C.;.r.W.G.1.*.W.E./ p p a e v %X%XL :.W.[.O.v !.oXm r 7 7 : A B.D.:.,.A.Z.4.$.N.F. .v w ",
"f 8 n +.' ` x.|. XB.o.Q ~ U r 8 q 7 r 8.8._ C.$X:XN.*.u.0.M g A w d S ! | <.N.!.|.F.O.W Q T f 7 q 7 7 +.0.( f.OX`.H.&.*.0.D p A ",
"j j 8 -.@._ ~.!.~.I.Y o.-.8 d s r j d ] o.&.[.F.G.D.1.&._ A A i v g * -.y.( D.|.[.U.Q -.-.8 d j 0 n r ) &. .W.!.N.`.1. .;.D i A ",
"v p O.>X|.`  .].W.Z | >X>XO.u z T i ` [.!.( } `.(.#.I -X>X! g ~ D m D 4X>XK :.H.H.:.F :X8XQ m v Q w ( |.[.( ( W.OX .} [.:X&.u C ",
"c  .[.>X%XF. .( F K rX{.[.wXL x e ;.~.[.`.H.4.V X.#.<X`.$X9X_ g a ! eX[._.,X{ G G L ;X'.%XrX( a w  .D.[.[.W.1.B } :.D.;X8XW.$.u ",
"L |.:X:X:X:X!.x ! %X:X%X%X|.[.O.` C.|.D.A.`.b.H I `.H.W.[.[.=X/  .|.>X!.!.>X[.( ( W.-X{.%X>X|.O.$.D.[.W.W.%XN.( L F.%XG.H.:X!. .",
"].W.!.(  .%XE.M.j.%XM.r.M.N.F.h.F.U.M.r.r.D.D.j.b.OXN.j.k.F.%XM.k.[.F.1.q.W.|.j.z.].F.h.r.M.W.N.r.N.N.r.1.j.M.M.r.$X$Xr.<.!.%XF.",
"y.>X%X>X8X:X%X .0.%X:XU.|.4XE.r.1.D.F.j.l.!.C.&.;.E.|.l.k.[.F.*.r.>X8X!.[.eX6X0.e.XX3X].W.%X|.h.1.H.[.N.N.[.!.q.*.F.~.V.x.Q.I.t.",
"K <.>X%X%X&X*.b y <.|.3X&XU.<.| } r.F.W.E.V.+.p n =.Q.E.U.W.1.I F f.[.4X9X.Xp.t r 7.Y.4X>XG.r.L } 1.f.M.H.F. .1 w O.C.!.^.Q.8.g ",
"> _ c.4X4Xy.! ; b > D.>X[.z.` ].A.1.1.D.V.) i d n + a.B.l.f.Z A.S.H G.%X1XY.0 E N * P.&X%XG.H G.W.4.:.N.D.*.x w ; a O.V.L.8.A 8 ",
"S e ! l.u.v & a & e % E.U.C &X:X8Xb.*.1.7.A q h 0 U r x.j.x A.;XtXZ.G N.V.d s k 0 r r V.D.L Z.<X<XN.:.1.$.x w a p & f t.p.g O 7 ",
"b S a ! J 1 a p > e > b Q 0.3X[.>X,Xr.&.S 9 j q h Y n S C *.-XOX;X;X*.S Y f h s 0 d 0 m S $.@X{.,X>Xk.} J u 2 y a S w T ' 9 7 0 ",
"p 1  .}.]._ ; a p > w :X&XC u.:X%XN.L [.~.i f d U A i 3X%Xu f.OXOXd.4 &X5Xr j j N 0 8 &X|.c 2.{.<XN.( W.!.x u v S i T B.^.' * d ",
"v Q !.4X3XU.Z a z x |.>X%XU.! N.k.I W.%X4X~.i g A p 0X9X>X%Xx r.k.l [.&X3X3Xt U f t ^.5X8X_.F >.A.J W.%X:X[.u C p T I.3XyX.Xm 8 ",
"K N.eX:X:X9Xj.z e W.9X[.%X4XN.x ( F.%X!.!.%XC.D v 3X%X[.%X%X!.x l W.>X8X&X&XXXw g T.1XT.%XwXA.G I f.%X`.W.%XF.Z J l.4X=X&X0Xa.D ",
"k.:X|.N.F.:X>Xq.z.8XU.k.U.].[.r.y.>X!.k.j.W.%Xr.D.%X[.k.F.%XU.M.D.!.>XW.k.[.%XN.r.>XU.N.W.].%XM.1.[.[.D.r.D.8Xr.r.[.[.W.N.E.%XV.",
"z.eX|.k.z.[.>X1.k.[.>Xj.M.:XF.j.y.C.%Xk.f.OXb.>.4.OXOXD.F.[.!.j.D.%X[.Z.N.OX-Xj.1.W.8XA.D.%XD.j.1.D.[.b.j.[.W.r.1.[.[.!.N.H.;Xr.",
"x N.,X8X:X{.j.x 4 Z.-X8X>X{.j.. p y.V.[.`.Z.b.P P A.-X`.E.[.x.g w z.>X>X8X<Xb.l B G.OX%X].W.B.1 2 j.j.!.[.M.G.}  .b.OXOX`.`.b.x ",
"C v D.eX>Xj.( j.j.b D.[.E.V.1 > w 8 I.~.D.b.I S.m.G G.;X$XC.i g Y S E.|.%XA.F k.d.l D.%X%X!.w : & w j.E.[.B.L N.A.} N.:X%XN.D y ",
"A v v ~.z.! ].D.!.q.a I.Y.8 0 * @ 8 g !.y.Z `.W.`.N.*.!.I.v f r v Q m !.!.K M.!.F.M.v x.!.j r # 6 t * a.R.( F.[.%XW.*.C.Q.T g f ",
"g v p O.Q S W.[.|.~.) W f @ j r j w o S /  .&X[.:XE.*.&.) i A Y n Y w ! _ Z F.>XXX|._ ! A o r h q f + A _ Q !.;X`.W.-.&.o.f j U ",
"v z ! F.Z.( r.{.[.O.J C.V.8 o 8 9 9 C M.D.1.b.`.H.f.j.[.F./ v Q m M Q D.F.O.r.[.F.q.( y.c.v * 7 7 9 v M.F.*.r.H.A.f.f.!.E.] g R ",
"J ( j.,X>X2.L d.*.{ r.XX3Xc.p & & C M.:X%X1.{ f.:.$.G.8X,Xj.D D J K j.8X,Xj.} :.1.( <.[.8XB.M & 8 p e.&X;Xf...>.4.$.b.:X8XC.! S ",
"F N.,X-X,XOX..B l d.>X[.].&Xq.p x b.-XH.OX-X4.} [ n.<XOX%X<XM.J L k.<X-X{.@X5.F G f.>X{.[.%Xq.a a r.:X`.W.OXb.[ P g.-X%X>XeXB.C ",
"r.%X,XH.{.<XA.:.d.G.{.W.W.|.F.q.2.`.OXb.H.<XH.4.6.OX,XH.`.8X%X1.r.{.wX_.H.,X_.>.:.W.wXW.z.%X[.r.;.[.8XD.Z.;X+X6.,.+X<X`.F.:X>Xj.",
"F.{.Z.2.j.W._.N.G.>X[.r.j.>X>Xr.k.W.b.:.4.b.Z.k.f.`.Z.f.f.N.[.j.Z._.G.f.k.H._.N.A.W.W.N.z.[.3XF.y.F.N.1.1.b.H.v.f.`.G.N.1.y.%XI.",
"Z E.:X|.:X8XU.z b U.8X8X>X:XF.Z J D.`.W.W.`.j.2 u W.%X%X%X[.W.x K G.-X%X%X>XW.Z Z D.4X8X&X4X!.e y l.~.W.!.[.N.u 3 f.`.8X%X~.!.i ",
"M Q !.5X5XR.M > w v *X XXX[.S C.j. .F.U.W.V.w ; ; a =XE.U.C.v F.N.x U.%X&X*Xa = > ^ R.3X5XT.^ O : g e. X=Xr.v ; , C B.C.I.I.T : ",
"~ r Y !.Y.v & j j r Y oX!.` c.5X3X;.o.V.l.g O p g > p C.R._ u.3X3Xh. .~.!.M 9 v m 8 W Y.^.) w M 8 f ' y.w.~ y > p X p I.^.T 9 n ",
"t A v ' ~ 8 r O O v r +.) _ yX}.3X3X0.] Y w A : O p & ) Q ` uX|. XyX` ~ ) * d @ * r n E ~ Q j 7 r 8 g ] ~ 9 & r : 9 * T ' v Y i ",
"m g Y x.s.d 6 8 r 7 m c.u.-.I.4X3XE.o.l.w.w g v 9 : A c.t.o.I.eX9XD.` e.c.n * 7 r 6 n p.c.~ g A n 9 A a.y.v 9 Y p w i -.t.Q T T ",
"M e w.5X3X-.& 8 w : @.&X4Xr.! W.D.&.*.%X=X_ i A w w 8.&X*X<.K [.F.Z 1.3X4Xw.9 : 7 : ' 1X5Xe.v S a C ;.!.!.8.S M e > +..X&Xy.a v ",
"2 q.yX&X&XqX7.& X y.].].:X{.d.{ } f.%XW.!.%X;.p > j.!.!.:XOX4.H F 4.-X8X%X&Xx.& o ;.oX~.|.3Xl.y x 1.E.!.~.!.<.p w o. XE.!.%X*.u ",
"1.{.eX|.&XuX}.O.-.[.%X_.'.@X).,.>.Z.OXN.A.%XN.O.<.[.[.W.{.-X).$.%.'.,X-X|.4X%X<.O.T.*X!.].,X`.2.*.H.%XF.F.%XW.*.1.F.%XW.F.[.G.f.",
"N.[.h.:.r.D.|.y.W.z.G.:.X.J.S.3.4.m.b.$.$.k.D.u.D.k.W.>.} A.A.5.g.(.S.{ 2.{.D.F.V.T.N.<.1.b.H.A.1.k.f.:.*.j.Z.N.1.W.M.1.:.r.H.f."
};
