/* XPM */
static char *_358753d35a044b49e282d5cfb7d2764hJon1yY6DiMHTceR[] = {
/* columns rows colors chars-per-pixel */
"64 64 256 2 ",
"   c #040301",
".  c #0A0602",
"X  c #0B0904",
"o  c #05060A",
"O  c #06090C",
"+  c #0C0C0B",
"@  c #120601",
"#  c #140A03",
"$  c #1B0D03",
"%  c #170C08",
"&  c #1C1204",
"*  c #13110D",
"=  c #1C140B",
"-  c #1A1508",
";  c #0A0C12",
":  c #070B13",
">  c #0D1015",
",  c #131313",
"<  c #1B1612",
"1  c #1B1A15",
"2  c #1B1B1B",
"3  c #16161A",
"4  c #0F100D",
"5  c #230D03",
"6  c #270A07",
"7  c #3C0604",
"8  c #3E0804",
"9  c #350906",
"0  c #241203",
"q  c #2B1303",
"w  c #2C1A05",
"e  c #22140C",
"r  c #2B150B",
"t  c #24190B",
"y  c #2B1C0B",
"u  c #241905",
"i  c #321C05",
"p  c #361907",
"a  c #231B14",
"s  c #2B1C14",
"d  c #271B17",
"f  c #361C18",
"g  c #39250C",
"h  c #3E290C",
"j  c #362209",
"k  c #23211C",
"l  c #2C241B",
"z  c #2D2315",
"x  c #332415",
"c  c #33231C",
"v  c #392719",
"b  c #302B0A",
"n  c #221F20",
"m  c #232323",
"M  c #2B2B2B",
"N  c #2B2825",
"B  c #342C24",
"V  c #3C2C23",
"C  c #382926",
"Z  c #3B3124",
"A  c #3D342A",
"S  c #36312D",
"D  c #383736",
"F  c #1F2120",
"G  c #420705",
"H  c #450906",
"J  c #4B0B06",
"K  c #4C0C08",
"L  c #420D09",
"P  c #530D09",
"I  c #530D07",
"U  c #4D130C",
"Y  c #44130D",
"T  c #5C120C",
"R  c #52150D",
"E  c #441713",
"W  c #531911",
"Q  c #62140E",
"!  c #621912",
"~  c #482C0B",
"^  c #512E08",
"/  c #55340D",
"(  c #462915",
")  c #582618",
"_  c #493216",
"`  c #573815",
"'  c #4C320F",
"]  c #62261A",
"[  c #6A3E17",
"{  c #432D26",
"}  c #453525",
"|  c #4C3A26",
" . c #43352B",
".. c #443A2D",
"X. c #4B3C2C",
"o. c #493526",
"O. c #573925",
"+. c #4A3D33",
"@. c #463A33",
"#. c #573832",
"$. c #673929",
"%. c #6A3224",
"&. c #3E403F",
"*. c #724715",
"=. c #54412D",
"-. c #5A462D",
";. c #5C4325",
":. c #4C4234",
">. c #4A443C",
",. c #534535",
"<. c #5A4632",
"1. c #5C4A34",
"2. c #53453B",
"3. c #554A3A",
"4. c #5C4C3B",
"5. c #534836",
"6. c #5F503D",
"7. c #4F402D",
"8. c #68452B",
"9. c #634D34",
"0. c #624E3B",
"q. c #694935",
"w. c #744B36",
"e. c #63523C",
"r. c #6A553C",
"t. c #6C553A",
"y. c #73553C",
"u. c #73593D",
"i. c #7A573C",
"p. c #7A4D29",
"a. c #5C4019",
"s. c #4A4847",
"d. c #584B41",
"f. c #5E5142",
"g. c #5D5349",
"h. c #575657",
"j. c #624E41",
"k. c #645544",
"l. c #6A5542",
"z. c #6C5A44",
"x. c #6D5D4B",
"c. c #665848",
"v. c #735C44",
"b. c #7B5D43",
"n. c #725E49",
"m. c #795348",
"M. c #785750",
"N. c #6F604D",
"B. c #7C6246",
"V. c #75624B",
"C. c #7C654C",
"Z. c #7B664C",
"A. c #6E6152",
"S. c #736452",
"D. c #7D6A53",
"F. c #7D6D5A",
"G. c #786756",
"H. c #7E705E",
"J. c #6C6967",
"K. c #87531A",
"L. c #8F653D",
"P. c #815B2C",
"I. c #845D43",
"U. c #826246",
"Y. c #83664B",
"T. c #846A4D",
"R. c #8B6B4E",
"E. c #89664A",
"W. c #956C45",
"Q. c #836C53",
"!. c #8B6E52",
"~. c #816C58",
"^. c #906E51",
"/. c #8C7255",
"(. c #84725B",
"). c #8B755C",
"_. c #8A755A",
"`. c #927254",
"'. c #92765A",
"]. c #937A5D",
"[. c #9C7B5C",
"{. c #92764F",
"}. c #A77C54",
"|. c #8D7A63",
" X c #887765",
".X c #947D63",
"XX c #997E62",
"oX c #947F6A",
"OX c #8D786E",
"+X c #AC875B",
"@X c #968166",
"#X c #9A8265",
"$X c #94826B",
"%X c #9C856B",
"&X c #9E896E",
"*X c #9D8972",
"=X c #968674",
"-X c #8D8173",
";X c #A1866A",
":X c #A2896D",
">X c #A78665",
",X c #A38D73",
"<X c #A68B78",
"1X c #AA9175",
"2X c #A5917A",
"3X c #AB957B",
"4X c #A9957A",
"5X c #B39A7C",
"6X c #B69776",
"7X c #B3916D",
"8X c #BDA17C",
"9X c #C4A27E",
"0X c #9B8F81",
"qX c #AD9982",
"wX c #A99886",
"eX c #B39D84",
"rX c #B49E85",
"tX c #A89D93",
"yX c #B3A28C",
"uX c #BAA48B",
"iX c #BCA285",
"pX c #ADA398",
"aX c #B4A595",
"sX c #BBA993",
"dX c #B9AA98",
"fX c #ADA08D",
"gX c #B7ADA2",
"hX c #BDB4A8",
"jX c #C1AE96",
"kX c #C4B39D",
"lX c #CCB699",
"zX c #C9AF8E",
"xX c #C3B5A3",
"cX c #CBBAA4",
"vX c #CBBDAB",
"bX c #C5B8A8",
"nX c #D1BEA5",
"mX c #C4BDB3",
"MX c #D3C3AD",
"NX c #D9C6AC",
"BX c #CEC1B2",
"VX c #CCC4BA",
"CX c #D2C4B3",
"ZX c #D4CABC",
"AX c #DACCBC",
"SX c #D6C8B6",
"DX c #DBD1BF",
"FX c #CFC0AD",
"GX c #E1D2BF",
"HX c #D7CDC3",
"JX c #DCD2C4",
"KX c #DBD4CA",
"LX c #DEDAD4",
"PX c #E0D7CB",
"IX c #E2DDD6",
"UX c #E4E1DC",
/* pixels */
"L ) i.Y.B.U.v.B ; ; ; ; ; 2 v.E.%.J 7 9 9 7 G ) T.Y.; ; : O ;  .T.$.Y G 8 O.b.9.=.Z , O O     o   o , f f e = w ~ i / 0 0 ^ K.& ",
"K 8 W i.`.!.U.b.,.2 ; > ; 2 T.R.%.7 9 9 7 G H O.!.Y.> ; > 3 +.v.q.Y 8 9 O.r.i.O.c ; : : O   o     + 2 C s e = y ~ i ` 0 0 ~ K.# ",
") H H W i.U.U.T.v.0.n ; : n Y.b.) 7 9 7 H H H $.!.Q.3 2 3 3 2 M s.D d < d V V v ; ; ; ; o   O o   + 2 { f 6 = y ( i / & 0 ^ K.# ",
"U.%.P H K O.b.T.q.Y.!. .; 2 b.b.( 7 G J J G H $.T.S.m , + + 3 S h.>.F + o       .   ; : o o O o o 2 M 2.c $ # z ( i ~ 0 0 ^ *.# ",
",.T.i.W H H ) b.b.`.'.U.0.B v.b.) J T J H G L $.T.s.2 , + + 3 D h.s.m +                   O ; O   3 m @.C e = y ( p / 0 0 ^ *.X ",
"> B C.E.) J G Y 8.!.Y.t.u.b.!.E.) I P G 8 8 L 8.T.h.2 , + + 2 D h.s.k +                 X c <.V l N d 2.V s $ u h w / $ w ^ [ X ",
"; ; S Y.I.$.K 7 L $.i.b.b.E./.R.] I H 7 7 7 U w.`.h.F , + + 1 D h.s.2 +               . X < -.o.@. .X.k.c c = 0 h w ^ $ w ^ [ X ",
"B N m B C.^.w.U L L ) i.U.!./.E.] H 8 8 H H U w.!.s.m , + + 2 s.J.&.2 +               . X = O.5. .} 4.c.c e a r h w ^ $ w ^ / . ",
"U.!.Q.C./.E.E.i.w.w.w.i.R.`.[.U.W 8 G J J G W i.E.h.2 , + 4 k s.J.S 2 +               . . 0 (  .c X.f.j.f d l y g w ~ 0 ~ j ^ # ",
"`.U.[.!.XX`.Y.U.U.E.!.R.^.R.R.y.R G K I J G W b.B.h.2 , + , m h.h.S 2 +                 # 6 E c f V 3.4.r e a x g w ~ ~ a.i i i ",
"$.$.w.E.E.^.E.R.R.E.Y.R.`.[.[.I.U J I I J J U %.$.h.2 , + , M h.h.D 2 +                 # p 9 $ e C f.j.V c a x g j / / ` i w h ",
"T H H P P P U W U W ) ] ] %.%.) K K I K H 7 G H Y h.2 , , 2 S h.h.D , +               . r Y 6 6 @.+.+.o.V s e y g ` ` g v ( g 0 ",
"Q T J G K J H J P G H J J H J H J J J H 7 7 H J E &.m N M M M N m m 2 , +             . 6 E 6 A C f ( { C $ = r ;.+Xt.r.C.u.u.;.",
"T Q T H G H 8 H J K J J J K J J J J H G 7 J J J f 2 m M M M M M m m 2 1 , +   .       . 6 9 6 @.c  .{ f r s = y ` 8.).#X/.B.T.u.",
"I Q Q J 7 G 8 H P P P H J H J K K J G f C C f f C F m M M N N m m 2 2 3 4 +   .       . 6 9 6 C A @.{ { s s < 0 ' ;.].#XD.0.v.r.",
"J T ! T 7 7 7 8 J I P J G H J J K J Y m 3 * + , 3 1 2 2 m F m m m 2 2 , + X   .   . . X 6 6 6 r C +.3.#.{ d = & h ;./.'.V.=.t.r.",
"8 P I T P G 7 8 H H G 7 7 H P P P H f * X + * * , , < 1 < , * + + + + + o o   .     . .   . . % s { 2.+. .l & & h ` r.B.T.B.-.v.",
"9 G P I T P L H J G G H P T T K J G L * + * * k d.G. X X XH.c.f.5.A B 1 +   X X . . .       . + l X.f.d.s % $ $ g ' 9.r.B.T.u.{.",
") ) W ! T I H H J 7 K K I J J G 8 H P e + k J.gXmXbXxXxXhXdXaXaXwXwX2X$X(.F.3.A =   . .     X + 1 +.c.d.c 6 & # u ~ h 8.t.u.8._ ",
"q.b.b.`.`.^.U.w.w.w.w.8.q.8.8.) J G 8 E s.pXKXKXZXZXAXZXSXCXBXvXcXcXbXaXqXrXwX=XoXz.A 4       1 M +.A. .c % # & y ~ w 0 u # # & ",
"| 9.b.T.[.'./.B.b.!.`.B.i.U.B.$.G J W F.hXLXLXKXJXJXJXJXAXSXMXCXvXCXxXsXuX3XqXrXrX2XoX4.1 X * m A >.d.r 6 @ # & ( h - 0 y & - b ",
"O O 1 B v.`.'.!.b.Y.i.i.i.E.Y.$.H K m.VXIXIXLXKXAXAXAXcXvXuXsXxXxXcXkX,X_.*X3X3XsXdXtX(.4.V < B +.d.} r 6 @ # u g ~ y # u b Z b ",
"O O , X.Y.!.!.!.w.W U W $.U.Y.$.H %.pXLXUXIXJXJXDXNXlX1Xx.+.4.aXvXvXsXx.a  .Q.eXdXvXsX*XD.z.X.B >.A t 0 5 @ # w j g u j ~ # # j ",
", l <.B.Q.!.E.%.U H U w.v.T.C.O.W OXHXIXIXJXJXJXSXnX6X7XeX=XtXCXHXJXVXtXk.l..XaXcXvXkX4X*X).D.S.d.V y 0 # # $ y g ` j j ` u y u ",
"j.u.y.b.b.y.) J H ) w.v.Z r.Y.8.M.mXIXIXPXNXNXAXNXlXiX8XCXJXKXSXBXmXZXHXvXqX,XsXBXcXaX4XeXwX$X=X2.v r q 0 0 # 0 g j w u _ - h b ",
"C.B.8.' p r q q p $.u.k , r.v.l.=XKXLXIXJXNXlXCXcXlXzXlXAXDXMXFX-XH.-XxXvXcXdXyXBXxX2X5XyXyXwX0Xz.B % $ $ 0 0 # r w y h ` u g i ",
"V.9.q 0 q p p p q q 0 e 1 0.b.n.tXLXLXJXAXnXlXSXvXcXMXJXJXSXlX=XA N 1 G.vXcXxXeXbXaX,XeXdXsXaXwXF.4.% # $ 0 q # $ g ~ g a.w w j ",
"x.r i i i q 5 q 0 q q $ $ r x g.hXKXKXJXAXnXzXMXCXMXJXPXGXNXzX X1 4 X 2.iXjXiXqXrXrX*XsXxXbXaX2X|.0.= X # $ 5 $ $ w h ~ ` 0 w u ",
"x p i 0 0 p _ ( e 5 0 5 $ 0 q X.pXHXJXAXCXMXiXkXBXSXJXPXNXnXlX,XS * B ~.>X6XeX:X,X,X/.aXxXhX4X&XXXz.=   # # 5 $ # i P.' / 0 w 0 ",
"x p q 0 ) w.9.k ; : $ 0 0 0 5 c OXVXJXCXMXcXrXeXBXZXAXSXlXzX9X>Xc.B ..O.w.[.:X:X@XQ.).dXxXyX,X@X'.l.s @ @ # 5 $ # 0 h j ( & & # ",
"| ( w ( q.<.d ; O O O % $ y s f o.hXvXBXcXkXrX:XvXCXCXcXzX+XW.;.c 4 p ' ' 8.'./.].B.].sXsX5X;X].C.X.$ X X # 0 q # 0 & . X       ",
"5X1X#X.XD.>.N 2 ; ; ; ; , f v _ g n.dXxXjXuX3X[.yXvXlXlX7XP.p.B.x.2._ / *.[ 8.C.B.u..X5XrX;X].T.<.a # # # # 0 0 # 0 u # # . . . ",
"rX5X5X5XiXiX5X*XoXS.d.D S <.p f ( 9 F.yXqX1X%XT.(.sXsX5X[.L.>X6X3X_.b.` / p.p.O.9.B._.;X#X].T.r.= . # # $ $ 0 $ # & 0 & 0 $ e & ",
"5XqX5X5X5X5X3X3X5X5X5X5X1X,XXX'.Q.r.q.|.,X:X.X/.'.2XiX5X7X7X6X7X1X5X^.i.O.~ [ g.o.t.T./././.v.x .   .   # $ 0 $ $ # . # = N B a ",
"qX2X,X3X2X(.c. X&X3X3X$XS.|.3X,X2X1X1X,X#X&X1X,X:X;X;X:X:X;X&X&X1X1X`.i.u.9.v +.E o.e.9.=.| z t .     . # 0 q $ $ .       . + X ",
"eX3X2X3X,XF.A. X3.F.%X%Xk.x.|.(.x.|.|.*Xk.c.|.|.(.x.#X:X%X.X$X@X:X:Xi.y.9.9.t.=.O.t.e.| y y t u .     X # 0 0 $ $         . X . ",
"3X$XoX$X,X$XG.$X(.(.*X*XS.(.S.H.x.x.S.&XN.f.c.x.N.k.).,X:X%X&X#X#X;Xi.T.T.T.T.B.B.v.v.e.v y u y .     # # q 0 $ # .     . X # # ",
",X,X$X$X X$X$X|.oX|.$X&X$X$X$X*X*X|.F.%X$X$X%X.X@X@X.X&X&X@X.X.X@X:XU.&X].'..X_././.T.B.| y u t .   . # $ 5 $ $ # .       . X . ",
"|.,Xx.2.@.k.4.d.oX3.S.c.d.|.$XF.G. X|.S.|. X).(.F.F.(.F.(.(.~.oX#X:XE.,X1X3X,X@X&X%X_.Q.v.| = = .     # 0 0 $ $ # . . X % a d < ",
"A.3X XA ..:.2.f.x.2.c.(.B $X$X:...:.S.k k.5.+.:.c.A f. .x.....V.#X;XU.1XrX1X5XeX3X,X.X'.Q.n.t t .     # 0 q $ #               . ",
"@.3X*X4.f.4.f.2.c.k...$XB $X,X:.A l x.A ..4.B l |...z.B n.X.k.5.#X;XT.3XsXuXdX3X,X4X2X@X].Q.} t .   . # 0 0 $ #           . # # ",
"l 3X,X$X$X X|.c.oXS.4.%X3.$X2XN.@.A c...@.5.3.k #XZ S...V...:.5.@X:X!.,XrXuXuX1XeXeX2X@X@X].1.t .   . # 0 $ $ X           . @ @ ",
"< %X2XA. X2X2X|.3.V.x.S.N.G. X|.x. X(.|.).(.S.V.).V.).V.V.D.z.].&X;X].].uX1XuXeXrXrX,X3X,X.XQ.x .   . # 5 # 5 .                 ",
"X F.2X,X$X$X*X%XG.F.N.2.x.5.S.F.:.3.c.4.N.x.c.z.c.4.A k.@X@Xe.D.@X&X#X].uX5XeXyX3XeXqX2X&X:XQ.0.X   X # 5 # $                   ",
". +.2X,X|._.~.~.).).|.).).).).k.5.k.f.5.4.c.V.D.~.x.V.Z.|.].Q.).%X;X#X'.3X5X,X3X3X1X5X:X%X#X_.Q.l . X $ # # #             . .   ",
"X < 4X,X$X)._.|.|.).).).).)...+ + 1 1 + X * 6.Q.~.D.C.Q.T.Z./.XXXX#X].!.eX3X:X,X,X%X;X%X;X,XyXfX XA $ $ # @ @                   ",
"X X %X,X%X.X).)..X.X.X.X|.).5.+ X < 1 + X X ..Q.Q.Q.D.Q.Q.T.Q..X.XXX].T.3X1X&X%X:X.X'.,XeXxXBXBXbXpXG.s # $ X             .     ",
"X . F.4X,XoX.X).@X.X|.).).Z.5.* * < 1 * 4 +  .Z.D.D.Z.C.Q.T.D..X.X.X'.T.&X,X%X/._./.XXeXkXBXZXZXZXZXvX-Xl $                     ",
"X A =XuX3X$X).~.@X|.)._.D.c a Z +.5.:.X. .l a l 4.Q.Q.D.C.Q.V.]..X.X[.T.,X&X&XQ.Q.T.'.sXvXCXJXJXJXHXBXdXOXz         .         * ",
"B pXZXvXeX$X.X$X.XoX).~.V.B c.$X%X&X*X:X%X).4.l < Z.C.Z.V.C.n..X.X.X;XT.,X]..XZ.t.u.oXdXFXCXZXZXJXJXBXxXrX0..   * B l       X ..",
"0XBXMXBXdX*X).(.(.).~.V.Z.$XwX4X.Xn.3XoXn.#X,X|.6.z.Z.C.C.C.n..X@X@X;XT.#X].Q.B.0.B.*XdXvXBXZXZXAXCXCXvXhX2Xa     v 4.*     4.=X",
"gXvXcXjXyX,X(.~.~.(.D.Z.).3X3X,X:X2X X$X%X&X,X,X#Xz.r.n.v.V.V._..X].XXR./.Q.C.z.=.V.=XaXvXvXBXvXjXkXjXrXkX2X+.    * 4. .    ,. X",
"xXcXkXkXuX%Xr.Z._.Q.C.z.(.2X,X3XeX%XZ =._.,X#X%X%Xn.=.e.r.v.V.Q.].).#X!./.Q.v.r.| e. XyXxXvXvXxX*XsXXX,XyX3Xl..   X 4.4.    * e.",
"bXjXdXuX4X#Xr.e.z.D.Z.n.z.).@X.X%Xb...X.1.Q.Z.T.~.1.X.1.r.z.n.Q.].).#XR._.(.V.r.4.(.$XwXaXhXVXHXmXyXD.,X5X,Xz..   X c.z.    a V.",
"pXqXeX,X@X/.<.=.r.Z.V.l.4.<.4.1.r.-.9.-.| -.=.=.=.v o.=.1.r.z.D._.)..X/.).D.Z.r.-XoX].'.;X3XuXkXCXVXmXdX$X_.1..   4 S.Z.* . +.$X",
"x.oX*X.XT.r.o.o.,.r.r.1.,...X.Q.Q.t.-.| | -.r.r.o.x v | ,.1.e.V.Q./.'././.Z.z.4.=X2XE.L.W.W.}.}.7X9XxX$XC.|.4.    *  Xz.Z B S.aX",
"c.A 3.l.t.9.-.-.t.z.0.e.r.1.z.(._.D.Z.v.V.Q._.Q.n.Z v Z X.=.1.e.Q.Q././.C.9.e.X.F.hXdXqX,X%X.X'./.!.Z.V.t.9.x.X   a *Xx.V.x.=XvX",
"V = X < V t.t.r.v.n.A 5.z.3.V.4.x.x.e.(.z.V.z.V.z.e.1.1.e.0.0.z.Q.Q./.`.v.1.=.o.S.aXaXfX=X X~.Z.C.V.0.<.| x c.    = $XgXOX XdX,X",
"s + . . = V.C.n.n.C.,.e.z.,.e.,.5.+.Z _.:.5.5.:.Z A X. .Z e.T.!.Q.Q.T./.v.<.| 1.H.bX<XoX).m.l.n.D.V.r.x < d.z     * 1.S.c.=XKXdX",
">.x r r w v._.D.z.4.4.k.l.z.z.V.D.D.D.Q.D.Z.V.V.n.Z.6.z.4.l.C.C.Y.C.T./.r.e.Z.F.F.dX<X|.Y.M.l.(.(.F.z.n.C.=.0 # # # x } 4.F.-XPX",
"d.| ( ( ( t.].(.D.l.3.0.4.6.z.k.x.x.c.c.c.V.z.x.z.l.e.e.l.4.4.B.B.B.B.!.C.).V.v.$XpXgX=XD.D.V.).=X(.n.e.n.n.1.$ # # # x 0.0.e.S.",
">.} ( ( ~ 8..X_.Q.V.k.4.4.6.c.c.V.k.z.n.z.V.z.V.e.n.4.k.e.4.4.C.C.v.B.T.Q.D. X$XwXpXgXpX=X$X$X=X=XF.n.z.e.e.l.s @ # @ $ } o.o.0.",
"a e ( ' ~ ` !.Q.C.Z.z.l.v.z.k.k.x.z.x.c.l.n.6.z.z.l.e.z.0.e.n.C.B.z.n.B.z.D.(.=XgXhXmXhXpXfXwX-Xx.e.z.4.7.<.G.s X @ @ @ u x y s ",
"$ . $ ( ( ( <.<.9.0.4.0.l.l.r.x.z.z.D.V.V.x.l.4.l.D.(.Q.C.r.u.B.~.D.Q.Q.9.v f.oXaXmXVXHXmXpX=XF.e.e.e.4.x.D.X.# X X # @ $ t e y "
};
