/* XPM */
static char *lamp_64x64[] = {
/* columns rows colors chars-per-pixel */
"64 64 55 1 ",
"  c #0B0301",
". c #1D0E05",
"X c #1F1006",
"o c #211107",
"O c #251307",
"+ c #3E2512",
"@ c #39210F",
"# c #383533",
"$ c #482B14",
"% c #593518",
"& c #4D2E15",
"* c #643C1A",
"= c #523521",
"- c #77481D",
"; c #6D421B",
": c #794921",
"> c #403F42",
", c #414143",
"< c #3F4142",
"1 c #824E1F",
"2 c #85511F",
"3 c #895424",
"4 c #995C25",
"5 c #844F20",
"6 c #A05E26",
"7 c #9C6227",
"8 c #A96B29",
"9 c #B97932",
"0 c #C27D2E",
"q c #CC8633",
"w c #DD9739",
"e c #D08B31",
"r c #E29C3C",
"t c #E9A63A",
"y c #DDA52C",
"u c #E29F42",
"i c #EAA843",
"p c #F5B74B",
"a c #F5BA57",
"s c #EDAF52",
"d c #EDB461",
"f c #D89948",
"g c #FAC558",
"h c #FAC86B",
"j c #FDD679",
"k c #FBCE70",
"l c #FDE37C",
"z c #FFC333",
"x c #FDE687",
"c c #FDE996",
"v c #FFFF89",
"b c #FDECA7",
"n c #FEEDB1",
"m c #FED980",
"M c #FDF1C3",
/* pixels */
",,,,,,,,,,,,,,,,,,,,,,,,,,,,,,,,,,,,,,,,,,,,,,,,,,,,,,,,,,,,,,,,",
",,,,,,,,,,,,,,,,,,,,,,,,,,,,,,,,,,,,,,,,,,,,,,,,,,,,,,,,,,,,,,,,",
",,,,,,,,,,,,,,,,,,,,,,,,,,,,,,,,,,,,,,,,,,,,,,,,,,,,,,,,,,,,,,,,",
",,,,,,,,,,,,,,,,,,,,,,,,,,,,,,,,,,,,,,,,,,,,,,,,,,,,,,,,,,,,,,,,",
",,,,,,,,,,,,,,,,,,,,,,,,,,,,,,,XX,,,,,,,,,,,,,,,,,,,,,,,,,,,,,,,",
",,,,,,,,,,,,,,,,,,,,,,,,,,,,,,XyeX,,,,>,,,,,,,,,,,,,,,,,,,,,,,,,",
",,,,,,,,,,,,,,,,,,,,,,,,......X*%XX.....,,,,,,,,,,,,,,,,,,,,,,,,",
",,,,,,,,,,,,,,,,,,,,,,,,X.XXXXX-*XXoXoXo,,,,,,,,,,,,,,,,,,,,,,,,",
",,,,,,,,,,,,,,,,,,,,,,X 8eihccccccmjsuq8 X,,,,,,,,,,,,,,,,,,,,,,",
",,,,,,,,,,,,,,,,,,,,,,X -44888888888844- X,,,,,,,,,,,,,,,,,,,,,,",
",,,,,,,,,,,,,,,,,,,,,,X rrqspaaaaaapsqrr X,,,,,,,,,,,,,,,,,,,,,,",
",,,,,,,,,,,,,,,,,,,,,.iipaqjjjjjjjjjjqgptiX,,,,,,,,,,,,,,,,,,,,,",
",,,,,,,,,,,,,,,,,,,,,XrwpgqjjjjjjjjjjegpwwX,,,,,,,,,,,,,,,,,,,,,",
",,,,,,,,,,,,,,,,,,,,,XtigkwjlllllllljwkgiiX,,,,,,,,,,,,,,,,,,,,,",
",,,,,,,,,,,,,,,,,,,,,XhpjkilxxxxxxlljikjphX,,,,,,,,,,,,,,,,,,,,,",
",,,,,,,,,,,,,,,,,,,,XikjjikxxxcccclllkijkkiX,,,,,,,,,,,,,,,,,,,,",
",,,,,,,,,,,,,,,,,,,,XijkxijxccbbbbcclkiljjiX,,,,,,,,,,,,,,,,,,,,",
",,,,,,,,,,,,,,,,,,,,XikjxijxccbbbbccxkiljjpX,,,,,,,,,,,,,,,,,,,,",
",,,,,,,,,,,,,,,,,,,,XgllcplxbbnMMnbbclixllgX>,,,,,,,,,,,,,,,,,,,",
",,,,,,,,,,,,,,,,,,,opjxxcpxbbbMMMnbbbxpxxxjiX,,,,,,,,,,,,,,,,,,,",
",,,,,,,,,,,,,,,,,,,XalxxxpxbbbMMMMbbbxplxxlp.,,,,,,,,,,,,,,,,,,,",
",,,,,,,,,,,,,,,,,X pkxxxpjcbbbMMMMbbbcjpcxlkp.X,,,,,,,,,,,,,,,,,",
",,,,,,,,,,,,,,,,,X.tkxxcpjcbbbMMMMbbbcjpxxxki X,,,,,,,,,,,,,,,,,",
",,,,,,,,,,,,,,,,,. pjjlxilccbbnMMnbbcxlpljmjp X,,,,,,,,,,,,,,,,>",
",,,,,,,,,,,,,,,,XiwajjkjillxccbbbbccxjlpjkjjariX,,,,,,,,,,,,,,,,",
",,,,,,,,,,,,,,,,XrwhhjagijllxxccccxxxjjtagjhhruX,,,,,,,,,,,,,,,,",
",,,,,,,,,,,,,,,,ourhkjgaijllxxccccxxxjjiggjhhriX,,,,,,,,,,,,,,,,",
",,,,,,,,,,,,,,,XwrrskheekjjjjjxxxxxxjjjjewhharrwX,,,,,,,,,,,,,,,",
",,,,,,,,,,,,,,o49uusaawehjmmjjjjjjjjjjjkewaaaui94X,,,,,,,,,,,,,,",
",,,,,,,,,,,,,,o114464qirsammjjjjjjjmjjhsrrq6644--o,,,,,,,,,,,,,,",
",,,,,,,,,,,,,,o1:44460irsahmjjjjjjjjjjharrq6644-;o,,,,,,,,,,,,,,",
",,,,,,,,,,,,,,,XX-;518qqq0raaaaaaaaaaiqqqq755*;XX,,,,,,,,,,,,,,,",
",,,,,,,,,,,,,,,,,oXXXX*%;;555222222511;*%&$XoXo,,,,,,,,,,,,,,,,,",
",,,,,,,,,,,,,,,,,,,,,,XXXXXXX++$++$oXXXXztX,,,,,,,,,,,,,,,,,,,,,",
",,,,,,,,,,,,,,,,,,,,,,,>,,>>oX%;;%X.,,,,%=,,,,,,,,,,,,,,,,,,,,,,",
",,,,,,,,,,,,,,,,,,,,,,,,,,,,+X%44&o$,,,,*&,,,,,,,,,,,,,,,,,,,,,,",
",,,,,,,,,,,,,,,,,,,,,,,,,,,,,,X$$X,,,,,,gt,,,,,,,,,,,,,,,,,,,,,,",
",,,,,,,,,,,,,,,,,,,,,,,,,,,,,,X42X,,,,,,%=,,,,,,,,,,,,,,,,,,,,,,",
",,,,,,,,,,,,,,,,,,,,,,,,,,,,,,X94X,,,,,,gg,,,,,,,,,,,,,,,,,,,,,,",
",,,,,,,,,,,,,,,,,,,,,,,,,,,,,,X94X,,,,,,&&,,,,,,,,,,,,,,,,,,,,,,",
",,,,,,,,,,,,,,,,,,,,,,,,,,,,,,X94X,,,,,$vl$,,,,,,,,,,,,,,,,,,,,,",
",,,,,,,,,,,,,,,,,,,,,,,,,,,,,,X94X<,,,,$vl$,,,,,,,,,,,,,,,,,,,,,",
",,,,,,,,,,,,,,,,,,,,,,,,,,,,oX4fq3 O,,,$yy$,,,,,,,,,,,,,,,,,,,,,",
",,,,,,,,,,,,,,,,,,,,,,,,,,,o88--1-77X,,,$+,,,,,,,,,,,,,,,,,,,,,,",
",,,,,,,,,,,,,,,,,,,,,,,,,,,X-;fjdq-;X,,,,,,,,,,,,,,,,,,,,,,,,,,,",
",,,,,,,,,,,,,,,,,,,,,,,,,,,X--ekd9;-X,,,,,,,,,,,,,,,,,,,,,,,,,,,",
",,,,,,,,,,,,,,,,,,,,,,,,,,,X*%288-%%o,,,,,,,,,,,,,,,,,,,,,,,,,,,",
",,,,,,,,,,,,,,,,,,,,,,,,,,,,oO*-1*Xo,,,,,,,,,,,,,,,,,,,,,,,,,,,,",
",,,,,,,,,,,,,,,,,,,,,,,,,,,,X.&*%&XX,,,,,,,,,,,,,,,,,,,,,,,,,,,,",
",,,,,,,,,,,,,,,,,,,,,,,,,,,.+$:98*++.,,,,,,,,,,,,,,,,,,,,,,,,,,,",
",,,,,,,,,,,,,,,,,,,,,,,,,>,X$$:97;+$o,,,,,,,,,,,,,,,,,,,,,,,,,,,",
",,,,,,,,,,,,,,,,,,,,,,,,,X@*::4f95--%@o>,,,,,,,,,,,,,,,,,,,,,,,,",
",,,,,,,,,,,,,,,,,,,,,,+XX+*399ddds88:*+XX#,,,,,,,,,,,,,,,,,,,,,,",
",,,,,,,,,,,,,,,,,,,,,o35:%&&&&****&&&&%-5:X,,,,,,,,,,,,,,,,,,,,,",
",,,,,,,,,,,,,,,,,,,,,X$&:39fdddddddsf83-$+X,,,,,,,,,,,,,,,,,,,,,",
",,,,,,,,,,,,,,,,,,,,,X$&$$%*;:;33:%%*%&&&@X,,,,,,,,,,,,,,,,,,,,,",
",,,,,,,,,,,,,,,,,,,,,.&&&$*%:::33:****$&&@X,,,,,,,,,,,,,,,,,,,,,",
",,,,,,,,,,,,,,,,,,,,,,#oo$%***-34****&$oo,,,,,,,,,,,,,,,,,,,,,,,",
",,,,,,,,,,,,,,,,,,,,,,,,,oXXXXXXXXXXXXo,,,,,,,,,,,,,,,,,,,,,,,,,",
",,,,,,,,,,,,,,,,,,,,,,,,,,,,,,,,,,,,,,,,,,,,,,,,,,,,,,,,,,,,,,,,",
",,,,,,,,,,,,,,,,,,,,,,,,,,,,,,,,,,,,,,,,,,,,,,,,,,,,,,,,,,,,,,,,",
",,,,,,,,,,,,,,,,,,,,,,,,,,,,,,,,,,,,,,,,,,,,,,,,,,,,,,,,,,,,,,,,",
",,,,,,,,,,,,,,,,,,,,,,,,,,,,,,,,,,,,,,,,,,,,,,,,,,,,,,,,,,,,,,,,",
",,,,,,,,,,,,,,,,,,,,,,,,,,,,,,,,,,,,,,,,,,,,,,,,,,,,,,,,,,,,,,,,"
};
