/* XPM */
static char *bench_64x64[] = {
/* columns rows colors chars-per-pixel */
"64 64 51 1 ",
"  c #1D1D1C",
". c #271B0F",
"X c #281C11",
"o c #2F2217",
"O c #242322",
"+ c #3C3B39",
"@ c #492C18",
"# c #54321C",
"$ c #502F1A",
"% c #62391F",
"& c #703F1F",
"* c #4E3B2F",
"= c #643C21",
"- c #6C4223",
"; c #784726",
": c #45493D",
"> c #4C4A49",
", c #52504F",
"< c #667C47",
"1 c #6F6D6C",
"2 c #5A7142",
"3 c #3B4D31",
"4 c #814D29",
"5 c #8A532C",
"6 c #91572E",
"7 c #8E5931",
"8 c #945D34",
"9 c #9C6237",
"0 c #A76A3B",
"q c #AE703E",
"w c #B57A4A",
"e c #AB7145",
"r c #598549",
"t c #688C4E",
"y c #6A8D50",
"u c #739652",
"i c #7FA157",
"p c #8BAB5B",
"a c #90AF5D",
"s c #8FB05D",
"d c #91B25E",
"f c #92B25F",
"g c #91B15D",
"h c #93B45E",
"j c #91B25E",
"k c #93B360",
"l c #8FAB60",
"z c #B88E59",
"x c #C78A56",
"c c #CF915D",
"v c #959493",
/* pixels */
"ffffffffffffffffffffffffffffffffffffffffffffffffffffffffffffffff",
"ffffffffffffkffffffffffffffffffffffffffffffffkhfkfffffffffffffff",
"fffffffffffkffffffffffffffffffffffsffffffffffffkffffffffffffffff",
"fffffffgffffffffffffffffffffffffffffffffffffssffffffffffffffffff",
"ffffffffffffffffffffffssfffffffffffffffffffffffffffffffffffffsff",
"ffffffssfffsffffffffffffffffffffffsfffsfffffffffffffffffffffsfsf",
"ffffffsfhtfftffffffffffffffffffffffffffffffffffffffftpffffffffff",
"ffffffssftffrfffffffffffffffffffffffkfffffffffffffuftpfifffsfsff",
"fffffsrppftuffffffffffffffffffffffffffffffffffffffrktpayffffffff",
"fffffffrrftfffrrfffffffffffffffffffffffffffffffffffyfutfffffffff",
"fffffffffffffffffffffffffffffffffffffffffffffffffffffgffffffffff",
"fffffffffffffffffffffffffffffffffffffffffffffffkfffffffgffsfffff",
"fffssfffffff<<<<2ffffffffffffffffffffffffffffff<t<<2ffffffffffff",
"ffsffffffffk OOO kfffffaffffaffffafffffffffffff OOO kfffffffffff",
"fffsfffffffo;;;;;-;;;;;;;;;;;;;;;;;;;;;;;;;;;;;;;;;;offfffffffff",
"fffsfffffffoxxwwwxxxxxwxxxxxxxxxxxxxxxxxxwxxxxxwwwwxofffffffffff",
"fffffffffhhX4444466665455565565555555;;;;;6666644444.fffffffffff",
"fffffffffhhX;;1*4666;;-4;;;;4;;46666645457776666*v*5.fffffffffff",
"ffffffffffhX4;o*4555;;;44;4;44446555544456666565-o=5.fffffffffff",
"fffffffffffX;;;;;4;;44;;444444456;;;;;;;;;;4;;4;;;;;.ffffsffffff",
"ffffffffffffX...X.XXX.XXXXX.XXXXXXXXXXXXXXX..X.X...Xffffffffffff",
"fffffhfffffX----=-;;;;;;;;;;;;;;;;;;;;;;;;;;;;-===--.gffffffffff",
"ffffkffffffoxxwwwwxxxxxxxwxxxxxxxxxxxxxxxxxxxxxzwwwxoggfffffffff",
"fffffffffffoxe9009eeeeewxwxccccccccccccccxwwwwwee0ewofffffffffff",
"fffffffffffX44,4445566545566666;;;;;;;;666666664;,44.fffffffffff",
"ffaffffffffX46 *566644;;;;;;;46555555554;;;56665* *4.hffffffffff",
"affffffffff.;;%-;;;;;;--;444444;;;;;44444===;;;;;#-;.fffffffffff",
"fffffffff  XX.X.XXXX........X.X........X.XX..X......OOOkffffffff",
"fssffffp ,, u2 + fffffgfsffsffffffffsshfffffffs +  u ,, kfffffff",
"fffffffl >, u2O+ fffffffssfsffffsfffffssffffsss +  u ,, kaffffff",
"ffffff ,>1+ pt > ffgafffafsgssffsfffffffaafaasa >  a +1>,Xfsffff",
"ffffffO111 X@@@@@%=%%%#%=%%====%==%#========%=%@@@@@X 111Offffff",
"ffffff+11> #5777700099999997890077777778900099977777# +11+fffffk",
"affff vvv .-8909097779000009777789900000899800000009-X vvvXhffaf",
"fffff vvv @@######$$$$$$$$$$$$$$$$$@$$$$$$$$$$#$#$##@o vvvOfffff",
"fffff vvv @@#$$$#@###$#@$$$$@$$$$$@$$$$$$$$#$$#####$@@ vvvXfffff",
"fffff >,> %5899889qqqqqqqqqqq0qqqqq999999900097788985= >>>Offfff",
"ffffh +++ ;90qqq00q0097788000000qq00q0999qqq0000qqqq9; +++Offfff",
"ffffff    @====-===========%=%%===========-======-=-=$    ffffff",
"ffffff >> 8xxxxxxxwxxxxxxxxxxxxxxxxxxxxxxxxwxxxxxxxxw7 >> ffffff",
"ffffff >>X%=;;;;;;;--$;;;;;;;;;;;;;=;;;;;;&;%&;----&=# >> ffffff",
"ffffff >> %;;;-------#;;---;-;;;;;;=;;;;-;-;;;;;;;;;;# >> hfffff",
"ffffff >>X#%=%==%%%%%%%=%%=%====;;;---=%%==%%%%%=====#X>, hfffff",
"ffffff >> XXXXX.XXXXXXXXXXX.XXXXXXXXXXXX.XXX.XX.XXXXX. >> ffffff",
"ffffff >>+ + ytttttttttttytttttttttttttttttttttttt3 + +>, ffffff",
"ffffff >>+ O3yttttttytttytttttttttytttytttttttttyty2O +>, ffffff",
"ssfffk 11+ yttttttttyyttttttttttttttttttttttttttttttt +11 ffffff",
"ssffff 11+ tttttttttytttttttttttttttttttttttttttttttt +11 ffffff",
"afffff 11+ ttttttttyyytyttttttttttttttttttttptytttttt +11 fgffff",
"gfffff >>+ ttfktfffffffffffffffffffffffffffffffftfhtt +>> ffffff",
"ffffft    ttpthffffsfffffffffffffffffffffsfffffffsaytt    tfffff",
"fffffgtttttfffffffssffffffffffffffffffffffffffffssffhtttttffffff",
"ffffffttttufffffffffffffffffffffffsfffffffffffffffffftttttgfffff",
"ffffffffffffffffffffffffffffffffffsfffffffffffffffffffffffgffggf",
"fsfffffffkfffffffsffffffffffffffffffffffffffffssffffhfffffgfgggg",
"fffffffsttfrfffffsffffffffffftyffffffffffsfffffffffftfffffgssggs",
"ffffffftfahtffffffffffffffftfttstfffffffffffffffffkftffaffffffsf",
"fffffffffttfffffsffffffffffsuaaiafffffffffffffffffuftkayffffffff",
"ffffffffftfffffffffffffffffftfftffffffffssffffffffffftyfffffffff",
"ffffffffffffffffffffffffffffffgssfffsffffffffffffffffffsffffffff",
"ffffffffffffffffffffffsffgfffffsfsffffffffffsfffffffffssffffffff",
"fffgfhfffffffffffffffffffggfffgfsfffsffffffffffffffffffgfffffffg",
"fggsfffffffhfffffffffffffffffsfffsffffffssfffffffsfffffsfffffffs",
"ffffffffffkffkkffffffffffffffsfffffffffffffffffkfffsfffffffffffs"
};
